X:495
T:Mike Flanagan's
T:Cavan Reel, The
R:reel
D:Frankie Gavin: Croch Suas E
Z:id:hn-reel-495
M:C|
K:Edor
BE~E2 E2ed | BE~E2 FDFA | BE~E2 E2Bd | edBA FDFA :|
|: G2dG eGdG | G2dG AFDF |1 G2dG eGdG | egdB AFDF :|2 EFGA Bdef | dBAG FDFA ||
P:variations
|: BE~E2 E2ed | BE~E2 FDFA | BE~E2 Bcdf |1 edBA FEFA :|2 edBA FDEF ||
G2dG eGdG | G2dB AGEF | G2dG eGdG | efdB AGEF |
G2dG eGdG | G2dB AGED | EFGA Bcdf | edBA FEFA ||

